X:1
T:Title
%%score { ( 1 3 ) | 2 }
L:1/8
Q:1/4=100
M:4/4
K:A
V:1 treble nm="Grand Piano"
V:3 treble 
V:2 bass 
V:1
 [Ec]2 [CA]>[DB] [Ec]2 [Fd]2 | c2 B>^A B4 | B2 G>A B2 c2 | B2 [CA]>[B,G] [CA]4 | %4
w: William~F.~Sherwin * * * *||||
 [Ec]2 [CA]>[DB] [Ec]2 BA | F2 [Fd]>[Fd] [Fd]4 | c2 A2 B2 G2 | [CEA]6 z2 | %8
w: ||||
 [GB]2 [EG]>[FA] [GB]2 [Ac]2 | [GB]2 [FA]>[^EG] [FA]4 | [FA]2 [^DF]>[EG] [FA]2 [GB]2 | %11
w: |||
 [Ac]2 [GB]>[FA] [EG]4 | [GB]2 [EG]>[FA] [GB]2 [F=c]2 | [^Ec]2 [EG]>[EG] [GB]2 [FA]2 | %14
w: |||
 [EG]2 E2 F2 ^D2 | E4 d4 | [Ec]2 [CA]>[DB] [Ec]2 [Fd]2 | c2 B>^A B4 | B2 G>A B2 c2 | %19
w: |||||
 B2 [CA]>[B,G] [CA]4 | [Ec]2 [CA]>[DB] [Ec]2 BA | F2 [Fd]>[Fd] [Fd]4 | c2 A2 B2 G2 | %23
w: ||||
[M:8/4] [CEA]8 z8 |] %24
w: |
V:2
 [A,,A,]2 [A,,E,]>[A,,E,] [A,,A,]2 [A,,A,]2 | [E,A,E]2 [E,D]>[E,C] [E,G,D]4 | %2
 [E,G,D]2 [E,B,]>[E,A,C] [E,G,D]2 [E,G,E]2 | [A,D]2 [A,,E,]>[A,,E,] [A,,E,]4 | %4
 [A,,A,]2 [A,,E,]>[A,,E,] [A,,A,]2 [B,,G,][C,A,] | [D,A,D]2 [D,A,]>[D,A,] [D,A,]4 | %6
 [E,A,E]2 [E,CE]2 [E,DE]2 [E,B,E]2 | A,,6 z2 | E,2 E,>E, E,2 E,2 | %9
 [B,,B,]2 [B,,B,]>[B,,B,] [B,,B,]4 | [B,,B,]2 [B,,B,]>[B,,B,] [B,,B,]2 [B,,B,]2 | %11
 [B,,B,]2 [B,,B,]>[B,,B,] [E,B,]4 | [E,B,]2 [E,B,]>[E,B,] [E,B,]2 [D,G,]2 | %13
 [C,G,]2 [C,C]>[C,C] [F,C]4 | [B,,B,]2 [B,,G,B,]2 [B,,A,B,]2 [B,,F,B,]2 | [E,G,B,]4 [E,G,E]4 | %16
 [A,,A,]2 [A,,E,]>[A,,E,] [A,,A,]2 [A,,A,]2 | [E,A,E]2 [E,D]>[E,C] [E,G,D]4 | %18
 [E,G,D]2 [E,B,]>[E,A,C] [E,G,D]2 [E,G,E]2 | [A,D]2 [A,,E,]>[A,,E,] [A,,E,]4 | %20
 [A,,A,]2 [A,,E,]>[A,,E,] [A,,A,]2 [B,,G,][C,A,] | [D,A,D]2 [D,A,]>[D,A,] [D,A,]4 | %22
 [E,A,E]2 [E,CE]2 [E,DE]2 [E,B,E]2 |[M:8/4] A,,8 z8 |] %24
V:3
 x8 | x8 | x8 | x8 | z4 z2 E2 | x8 | x8 | x8 | x8 | x8 | x8 | x8 | x8 | x8 | x8 | x8 | x8 | x8 | %18
 x8 | x8 | z4 z2 E2 | x8 | x8 |[M:8/4] x16 |] %24

